X:1
T:Serenade
T:Ständchen, D. 957
T:Franz Schubert (1797-1828) arr: Chris Brace
C:Franz Schubert
%%score 1 ( 2 3 )
L:1/8
Q:1/4=72
M:3/4
K:F
V:1 treble nm="Flute" snm="Fl."
V:2 treble-8 nm="Classical Guitar" snm="Guit."
V:3 treble-8 
V:1
 z6 | z6 | z6 | z6 |!p! (3ABA (!>!d3 A) | (3GAG (!>!d3 G) | (!>!A3 G) (3GFE | F4 z2 | %8
!pp! (a3 g) (3gfe | f6 |!p! (3ABA (!>!f3 A) | (3GAG (!>!e3 G) | (!>!c3 B) (3BAG | A4 z!pp! (d | %14
 c3 B) (3BAG | A6 |!mf! (A>!<(!^c !>!f3) e!<)! |!>(! (d>A !>!F3) D!>)! |!p!{Bc} (3BAB (!>!d3 B | %19
 A6) |!pp!{GA} (3G^FG (!>!c3 E | F6) |!mf! (A>!<(!^c !>!f3) e!<)! |!>(! (d>A !>!^F3) D!>)! | %24
!p!{=B^c} (3B^AB (!>!d3 B | A6) |!f! (3e^de (!>!g3 ^c | d6) |!mf! (B4 !>!d>B | A3) .A .A.A | %30
 A3 .A .A.A | A4 A2 |!pp! (B4 !>!d>B | A3) .A .A.A | A3 .A .A.A | A6 ||!mf! (A>A ^c>c e>e | %37
 !^!d2 ^c2) z2 | (A3 ^c e>d | ^c) z z4 |!f! (^f3 e) (3(ed^c | =B>^c d2 B) z | z6 | %43
!pp! (=B>^c d2 B) z |!p!{=B^c} (3B^AB (!>!d3 B | A6) |!f! (3e^de (!>!g3 ^c |!f! d6) | %48
!mf! (B4 !>!d>B | A3) .A .A.A | A3 .A .A.A | A4 A2 |!pp! (B4 !>!d>B | A3) .A .A.A | A3 .A .A.A | %55
 A4 z2 | A4 z2 | !fermata!A6 |] %58
V:2
!pp! D!<(!A [df]A [df]A | B,B [df]B [df]B!<)! |!>(! G,B [de]B [de]B |"^rit." A,A [^ce]A [ce]A!>)! | %4
!p! DA [df]A [df]A | B,G [de]G [de]G | A,A [^cg]A [cg]A | DA [df]A [df]A |!pp! A,A [^cg]A [cg]A | %9
 DA [df]A [df]A |!p! DA [df]A [df]A | B,G [de]G [de]G | CG [Be]G [Be]G | %13
 F,[FAc] [Acf][FAc] [Acf]!pp![FAc] | CG [Be]G [Be]G | F,[FAc] [Acf][FAc] [Acf][FAc] | %16
!mf! A,!<(!A [^cg]A [cg]A!<)! |!>(! DA [df]A [df]A!>)! |!p! B,[FBd] [Bdf][FBd] [Bdf][FBd] | %19
 F,[FAc] [Acf][FAc] [Acf][FAc] |!pp! CG [ce]G [ce]G | F,[FAc] [Acf][FAc] [Acf][FAc] | %22
!mf! A,!<(!A [^cg]A [cg]A!<)! |!>(! DA [d^f]A [df]A!>)! |!p! G,=B [dg]B [dg]B | DA [d^f]A [df]A | %26
!f! A,A [^cg]A [cg]A | DA [d^f]A [df]A |!mf! DG [Bd]G [Bd]G | D^F [Ad]F [Ad]F | A,A [^cg]A [cg]A | %31
 D^F [Ad]F [Ad]F |!pp! DG [Bd]G [Bd]G | D^F [Ad]F [Ad]F | A,A [^cg]A [cg]A | D^F [Ad]F [Ad]F || %36
!mf! z [EG^c] [EGc][EGc] z [EGc] | z [EG^c] [EGc][EGc] z [EGc] | z [EG^c] [EGc][EGc] z [EGc] | %39
 z [EG^c] [EGc][EGc] z [EGc] |!f! [^F,^F^A^c]2 F[Ac] F[Ac] | [=B,^F=Bd]2 F[Bd] F[Bd] | %42
!p! (=B>^c d2 B) z |!pp! (=B,>^C D2 B,) z |!p! G,=B [dg]B [dg]B | DA [d^f]A [df]A | %46
!f! A,A [^cg]A [cg]A |!f! DA [d^f]A [df]A |!mf! DG [Bd]G [Bd]G | D^F [Ad]F [Ad]F | %50
 A,A [^cg]A [cg]A | D^F [Ad]F [Ad]F |!pp! DG [Bd]G [Bd]G | D^F [Ad]F [Ad]F | A,A [^cg]A [cg]A | %55
 D^F [Ad]F [Ad]F | D^F [Ad]F [Ad]F | !fermata![A,DAdf]6 |] %58
V:3
 x6 | x6 | x6 | x6 | x6 | x6 | x6 | x6 | x6 | x6 | x6 | x6 | x6 | x6 | x6 | x6 | x6 | x6 | x6 | %19
 x6 | x6 | x6 | x6 | x6 | x6 | x6 | x6 | x6 | x6 | x6 | x6 | x6 | x6 | x6 | x6 | x6 || A,4 B,2 | %37
 A,4 B,2 | A,4 B,2 | A,4 B,2 | x6 | x6 | x6 | x6 | x6 | x6 | x6 | x6 | x6 | x6 | x6 | x6 | x6 | %53
 x6 | x6 | x6 | x6 | x6 |] %58

